img/as-btn-w.svg

<svg width="135" height="40" viewBox="0 0 135 40" fill="none" xmlns="http://www.w3.org/2000/svg">
<path d="M130 0H5C2.23858 0 0 2.23858 0 5V35C0 37.7614 2.23858 40 5 40H130C132.761 40 135 37.7614 135 35V5C135 2.23858 132.761 0 130 0Z" fill="white"/>
<path d="M48.0241 27.8306H43.7029L42.6937 30.8335H40.5697L44.7364 19.0904H47.0964L51.2712 30.8335H49.017L48.0241 27.8306ZM44.1911 26.1704H47.5359L45.9408 21.3284H45.8024L44.1911 26.1704ZM58.0948 21.784C59.2232 21.784 60.1157 22.1937 60.7722 23.0129C61.434 23.8321 61.765 24.9552 61.765 26.382C61.765 27.8034 61.4395 28.9238 60.7885 29.743C60.132 30.5677 59.2422 30.98 58.1192 30.98C56.7899 30.98 55.884 30.4809 55.401 29.4826H55.2627V33.6819H53.2445V21.9305H55.1895V23.4035H55.3279C55.5828 22.8989 55.9545 22.5029 56.4427 22.2154C56.9365 21.9279 57.4871 21.784 58.0948 21.784ZM57.46 29.2629C58.1599 29.2629 58.7078 29.0079 59.1039 28.4979C59.4945 27.9879 59.6898 27.2826 59.6898 26.382C59.6898 25.4814 59.4918 24.7761 59.0957 24.2661C58.7051 23.7562 58.1626 23.5012 57.4681 23.5012C56.7791 23.5012 56.2339 23.7589 55.8324 24.2743C55.431 24.7897 55.2275 25.4923 55.222 26.382C55.2275 27.2718 55.431 27.9744 55.8324 28.4898C56.2285 29.0052 56.771 29.2629 57.46 29.2629ZM68.8083 21.784C69.9368 21.784 70.8293 22.1937 71.4857 23.0129C72.1476 23.8321 72.4785 24.9552 72.4785 26.382C72.4785 27.8034 72.153 28.9238 71.502 29.743C70.8455 30.5677 69.9558 30.98 68.8327 30.98C67.5035 30.98 66.5975 30.4809 66.1146 29.4826H65.9763V33.6819H63.958V21.9305H65.903V23.4035H66.0414C66.2964 22.8989 66.668 22.5029 67.1563 22.2154C67.65 21.9279 68.2007 21.784 68.8083 21.784ZM68.1735 29.2629C68.8734 29.2629 69.4214 29.0079 69.8175 28.4979C70.208 27.9879 70.4034 27.2826 70.4034 26.382C70.4034 25.4814 70.2054 24.7761 69.8093 24.2661C69.4186 23.7562 68.8761 23.5012 68.1817 23.5012C67.4926 23.5012 66.9474 23.7589 66.546 24.2743C66.1445 24.7897 65.941 25.4923 65.9356 26.382C65.941 27.2718 66.1445 27.9744 66.546 28.4898C66.942 29.0052 67.4845 29.2629 68.1735 29.2629ZM81.0069 27.6434C81.072 28.1697 81.346 28.5874 81.8288 28.8967C82.3117 29.2114 82.9247 29.3687 83.6684 29.3687C84.3625 29.3687 84.9317 29.2086 85.3767 28.8885C85.8275 28.5739 86.0525 28.1697 86.0525 27.6759C86.0525 27.2528 85.8817 26.9083 85.54 26.6424C85.2034 26.3766 84.6584 26.1569 83.9042 25.9833L82.3822 25.6334C80.2934 25.1614 79.249 24.0654 79.249 22.3456C79.249 21.2768 79.6478 20.4196 80.4454 19.7739C81.2483 19.1229 82.3062 18.7974 83.6192 18.7974C84.8509 18.7974 85.8709 19.1175 86.6792 19.7577C87.4875 20.3979 87.9159 21.2225 87.965 22.2316H85.955C85.8842 21.7162 85.6375 21.3066 85.2142 21.0028C84.7909 20.6989 84.2567 20.547 83.6109 20.547C82.9329 20.547 82.3904 20.6963 81.9835 20.9947C81.5711 21.2984 81.365 21.6999 81.365 22.1991C81.365 22.5951 81.525 22.9152 81.8451 23.1594C82.1652 23.4089 82.6887 23.6178 83.4159 23.786L84.7667 24.0953C85.955 24.3611 86.8175 24.7571 87.3542 25.2834C87.8859 25.8097 88.1517 26.5204 88.1517 27.4155C88.1517 28.5603 87.74 29.4636 86.915 30.1255C86.085 30.7929 84.9592 31.1265 83.5375 31.1265C82.1923 31.1265 81.1045 30.8119 80.2745 30.1825C79.4498 29.5531 79.0104 28.7068 78.9561 27.6434H81.0069ZM93.12 19.8065V21.9875H95.0734V23.5989H93.12V27.9689C93.12 28.8153 93.5267 29.2384 94.3409 29.2384C94.525 29.2384 94.7475 29.225 95.0084 29.1978V30.7765C94.6825 30.8417 94.335 30.8742 93.9667 30.8742C92.9467 30.8742 92.2142 30.687 91.7692 30.3127C91.33 29.9384 91.11 29.3199 91.11 28.4572V23.5989H89.6617V21.9875H91.11V19.8065H93.12ZM100.969 29.3199C101.674 29.3199 102.217 29.0621 102.597 28.5468C102.982 28.0368 103.174 27.3152 103.174 26.382C103.174 25.4543 102.982 24.7327 102.597 24.2173C102.212 23.7019 101.669 23.4442 100.969 23.4442C100.264 23.4442 99.7184 23.7019 99.3334 24.2173C98.9484 24.7327 98.7559 25.4543 98.7559 26.382C98.7559 27.3152 98.9484 28.0368 99.3334 28.5468C99.7184 29.0621 100.264 29.3199 100.969 29.3199ZM100.969 31.0125C99.6342 31.0125 98.5875 30.6029 97.8275 29.7837C97.0684 28.9591 96.6884 27.8252 96.6884 26.382C96.6884 24.9498 97.0709 23.8185 97.8359 22.9884C98.6009 22.1639 99.645 21.7515 100.969 21.7515C102.298 21.7515 103.343 22.1639 104.103 22.9884C104.868 23.8131 105.25 24.9443 105.25 26.382C105.25 27.8252 104.87 28.9591 104.11 29.7837C103.345 30.6029 102.298 31.0125 100.969 31.0125ZM107.451 21.9305H109.396V23.314H109.534C109.659 22.8691 109.936 22.5029 110.364 22.2154C110.803 21.9279 111.306 21.784 111.87 21.784C112.217 21.784 112.493 21.8139 112.7 21.8735V23.7453C112.493 23.6694 112.152 23.6314 111.674 23.6314C111.023 23.6314 110.494 23.8185 110.088 24.1929C109.675 24.5727 109.469 25.0718 109.469 25.6903V30.8335H107.451V21.9305ZM118.026 23.3547C117.424 23.3547 116.928 23.5527 116.537 23.9488C116.146 24.3448 115.929 24.8684 115.886 25.5194H120.077C120.055 24.8575 119.86 24.3313 119.491 23.9406C119.122 23.55 118.633 23.3547 118.026 23.3547ZM122.006 28.3839C121.816 29.1978 121.371 29.8379 120.671 30.3045C119.966 30.7765 119.093 31.0125 118.051 31.0125C116.743 31.0125 115.715 30.6029 114.966 29.7837C114.223 28.9699 113.851 27.8469 113.851 26.4146C113.851 24.9823 114.226 23.8457 114.974 23.0048C115.723 22.1693 116.743 21.7515 118.034 21.7515C119.303 21.7515 120.299 22.1503 121.021 22.9478C121.737 23.7399 122.095 24.8385 122.095 26.2437V26.8947H115.878V27.0005C115.905 27.7438 116.117 28.3297 116.513 28.7584C116.914 29.1924 117.446 29.4094 118.108 29.4094C119.128 29.4094 119.789 29.0676 120.093 28.3839H122.006Z" fill="#292929"/>
<path d="M42.8524 8.29525C43.7232 8.29525 44.4013 8.55025 44.8869 9.06025C45.3724 9.57291 45.6153 10.2904 45.6153 11.2127C45.6153 12.1513 45.3738 12.8783 44.8909 13.3937C44.4081 13.9092 43.7286 14.1668 42.8524 14.1668H40.7324V8.29525H42.8524ZM41.6439 13.3367H42.7507C43.3664 13.3367 43.8425 13.1537 44.1788 12.7874C44.5179 12.4185 44.6875 11.8977 44.6875 11.2249C44.6875 10.5631 44.5166 10.0477 44.1748 9.67875C43.8358 9.30975 43.361 9.12533 42.7507 9.12533H41.6439V13.3367ZM48.6141 13.4751C48.9912 13.4751 49.2842 13.3408 49.493 13.0722C49.6992 12.8064 49.8023 12.4321 49.8023 11.9492C49.8023 11.4691 49.6992 11.0947 49.493 10.8262C49.2842 10.5603 48.9912 10.4274 48.6141 10.4274C48.2343 10.4274 47.9413 10.5603 47.7352 10.8262C47.529 11.092 47.4259 11.4663 47.4259 11.9492C47.4259 12.4347 47.529 12.8105 47.7352 13.0763C47.9413 13.3422 48.2343 13.4751 48.6141 13.4751ZM48.6141 14.2522C47.9631 14.2522 47.4518 14.0475 47.0801 13.6378C46.7084 13.2282 46.5226 12.6653 46.5226 11.9492C46.5226 11.2357 46.7098 10.6742 47.0842 10.2647C47.4558 9.855 47.9658 9.65025 48.6141 9.65025C49.2598 9.65025 49.7683 9.855 50.14 10.2647C50.5143 10.6742 50.7015 11.2357 50.7015 11.9492C50.7015 12.6653 50.5157 13.2282 50.1441 13.6378C49.7724 14.0475 49.2624 14.2522 48.6141 14.2522ZM56.1377 14.1668H55.2303L54.3148 10.9035H54.2456L53.3342 14.1668H52.4349L51.2142 9.73566H52.1013L52.8947 13.117H52.9598L53.8713 9.73566H54.7095L55.6209 13.117H55.6901L56.4795 9.73566H57.3543L56.1377 14.1668ZM58.2577 9.73566H59.0999V10.4396H59.165C59.2736 10.1927 59.4498 10.0002 59.694 9.86183C59.9408 9.72075 60.2311 9.65025 60.5648 9.65025C61.0585 9.65025 61.4396 9.79266 61.7082 10.0775C61.9768 10.365 62.111 10.7719 62.111 11.2982V14.1668H61.2362V11.5179C61.2362 10.8072 60.9133 10.4518 60.2678 10.4518C59.9151 10.4518 59.6384 10.5522 59.4377 10.7529C59.2343 10.9537 59.1325 11.2277 59.1325 11.5748V14.1668H58.2577V9.73566ZM63.3846 8.00635H64.2594V14.1668H63.3846V8.00635ZM67.4455 13.4751C67.8225 13.4751 68.1155 13.3408 68.3244 13.0722C68.5306 12.8064 68.6337 12.4321 68.6337 11.9492C68.6337 11.4691 68.5306 11.0947 68.3244 10.8262C68.1155 10.5603 67.8225 10.4274 67.4455 10.4274C67.0657 10.4274 66.7728 10.5603 66.5666 10.8262C66.3604 11.092 66.2573 11.4663 66.2573 11.9492C66.2573 12.4347 66.3604 12.8105 66.5666 13.0763C66.7728 13.3422 67.0657 13.4751 67.4455 13.4751ZM67.4455 14.2522C66.7944 14.2522 66.2831 14.0475 65.9115 13.6378C65.5398 13.2282 65.354 12.6653 65.354 11.9492C65.354 11.2357 65.5412 10.6742 65.9155 10.2647C66.2872 9.855 66.7972 9.65025 67.4455 9.65025C68.0911 9.65025 68.5998 9.855 68.9713 10.2647C69.3457 10.6742 69.5329 11.2357 69.5329 11.9492C69.5329 12.6653 69.3471 13.2282 68.9754 13.6378C68.6038 14.0475 68.0938 14.2522 67.4455 14.2522ZM72.0353 13.5036C72.3636 13.5036 72.6375 13.4113 72.8573 13.2269C73.0743 13.0424 73.1828 12.8118 73.1828 12.5352V12.1649L72.1004 12.2341C71.5091 12.2747 71.2134 12.4877 71.2134 12.8729C71.2134 13.0682 71.2907 13.2228 71.4453 13.3367C71.5945 13.448 71.7912 13.5036 72.0353 13.5036ZM71.8115 14.2401C71.3775 14.2401 71.0248 14.1207 70.7536 13.882C70.4742 13.6352 70.3345 13.3123 70.3345 12.9136C70.3345 12.5175 70.4769 12.2056 70.7618 11.9777C71.0466 11.7526 71.4534 11.6237 71.9824 11.5912L73.1828 11.522V11.1395C73.1828 10.6512 72.8803 10.4071 72.2754 10.4071C71.7627 10.4071 71.4548 10.5712 71.3518 10.8994H70.5053C70.5488 10.5197 70.7359 10.2158 71.0669 9.988C71.3952 9.76283 71.8115 9.65025 72.3161 9.65025C72.8695 9.65025 73.2981 9.78183 73.6019 10.0449C73.903 10.3053 74.0536 10.6702 74.0536 11.1395V14.1668H73.2113V13.5442H73.1421C72.8654 14.0082 72.4218 14.2401 71.8115 14.2401ZM76.9182 14.2401C76.3539 14.2401 75.9063 14.0339 75.5753 13.6216C75.2444 13.2092 75.0789 12.6518 75.0789 11.9492C75.0789 11.2493 75.2458 10.6932 75.5794 10.2809C75.9103 9.86858 76.3566 9.66241 76.9182 9.66241C77.2219 9.66241 77.4946 9.73025 77.736 9.86591C77.9774 10.0042 78.1578 10.1955 78.2772 10.4396H78.3423V8.00635H79.2171V14.1668H78.3789V13.467H78.3098C78.0276 13.9823 77.5638 14.2401 76.9182 14.2401ZM77.1663 10.4477C76.7974 10.4477 76.5085 10.582 76.2997 10.8506C76.0881 11.1164 75.9823 11.4827 75.9823 11.9492C75.9823 12.4185 76.0867 12.7874 76.2956 13.056C76.5072 13.3218 76.7974 13.4547 77.1663 13.4547C77.5353 13.4547 77.8255 13.3205 78.0371 13.0519C78.2514 12.7833 78.3586 12.4172 78.3586 11.9533C78.3586 11.4922 78.2514 11.1259 78.0371 10.8547C77.8228 10.5834 77.5326 10.4477 77.1663 10.4477ZM84.6817 13.4751C85.0592 13.4751 85.3517 13.3408 85.5608 13.0722C85.7667 12.8064 85.87 12.4321 85.87 11.9492C85.87 11.4691 85.7667 11.0947 85.5608 10.8262C85.3517 10.5603 85.0592 10.4274 84.6817 10.4274C84.3017 10.4274 84.0092 10.5603 83.8025 10.8262C83.5967 11.092 83.4933 11.4663 83.4933 11.9492C83.4933 12.4347 83.5967 12.8105 83.8025 13.0763C84.0092 13.3422 84.3017 13.4751 84.6817 13.4751ZM84.6817 14.2522C84.0308 14.2522 83.5192 14.0475 83.1478 13.6378C82.7762 13.2282 82.5903 12.6653 82.5903 11.9492C82.5903 11.2357 82.7775 10.6742 83.1518 10.2647C83.5233 9.855 84.0333 9.65025 84.6817 9.65025C85.3275 9.65025 85.8358 9.855 86.2075 10.2647C86.5817 10.6742 86.7692 11.2357 86.7692 11.9492C86.7692 12.6653 86.5833 13.2282 86.2117 13.6378C85.84 14.0475 85.33 14.2522 84.6817 14.2522ZM87.8233 9.73566H88.665V10.4396H88.7308C88.8392 10.1927 89.015 10.0002 89.2592 9.86183C89.5067 9.72075 89.7967 9.65025 90.13 9.65025C90.6242 9.65025 91.005 9.79266 91.2733 10.0775C91.5425 10.365 91.6767 10.7719 91.6767 11.2982V14.1668H90.8017V11.5179C90.8017 10.8072 90.4792 10.4518 89.8333 10.4518C89.4808 10.4518 89.2042 10.5522 89.0033 10.7529C88.8 10.9537 88.6983 11.2277 88.6983 11.5748V14.1668H87.8233V9.73566ZM96.3717 8.6615V9.756H97.365V10.4925H96.3717V12.7712C96.3717 13.0017 96.4225 13.1712 96.5225 13.2797C96.6233 13.3856 96.7817 13.4385 96.9983 13.4385C97.08 13.4385 97.1883 13.4317 97.3242 13.4182V14.1465C97.1558 14.1763 97 14.1912 96.8567 14.1912C96.3708 14.1912 96.0225 14.099 95.8108 13.9146C95.6017 13.7301 95.4975 13.4236 95.4975 12.995V10.4925H94.7692V9.756H95.4975V8.6615H96.3717ZM98.4025 8.00635H99.2692V10.4477H99.3383C99.4467 10.1982 99.6233 10.0042 99.8675 9.86591C100.112 9.72483 100.4 9.65433 100.734 9.65433C101.233 9.65433 101.618 9.79808 101.89 10.0856C102.163 10.3732 102.301 10.7801 102.301 11.3063V14.1668H101.426V11.522C101.426 10.8112 101.096 10.4559 100.437 10.4559C100.082 10.4559 99.7992 10.559 99.5908 10.7652C99.3817 10.9686 99.2775 11.2398 99.2775 11.5789V14.1668H98.4025V8.00635ZM105.357 10.3948C105.033 10.3948 104.768 10.4993 104.559 10.7082C104.35 10.9171 104.233 11.1951 104.209 11.5423H106.447C106.436 11.1924 106.333 10.9143 106.137 10.7082C105.94 10.4993 105.679 10.3948 105.357 10.3948ZM107.285 12.9706C107.185 13.3693 106.967 13.6826 106.63 13.9105C106.291 14.1383 105.869 14.2522 105.365 14.2522C104.73 14.2522 104.231 14.0475 103.868 13.6378C103.501 13.231 103.318 12.6735 103.318 11.9655C103.318 11.2575 103.503 10.6946 103.872 10.2768C104.24 9.85908 104.737 9.65025 105.361 9.65025C105.977 9.65025 106.461 9.84825 106.813 10.2443C107.163 10.6403 107.338 11.187 107.338 11.8841V12.1893H104.209V12.2381C104.223 12.6287 104.335 12.938 104.547 13.1658C104.758 13.3937 105.039 13.5077 105.389 13.5077C105.923 13.5077 106.275 13.3286 106.443 12.9706H107.285Z" fill="#292929"/>
<path d="M29.3811 24.5439C29.304 24.4248 29.1786 24.3452 29.0379 24.3262C27.1867 24.0843 25.882 22.3877 26.1238 20.5364C26.2946 19.2288 27.2103 18.1398 28.4692 17.7472C28.7249 17.6653 28.8657 17.3916 28.7838 17.1359C28.771 17.0961 28.7532 17.0581 28.7307 17.0228C27.8812 15.4897 26.3707 14.4353 24.6387 14.1665C23.7659 14.2082 22.9058 14.3924 22.0925 14.7119C21.5084 14.9469 20.8916 15.0909 20.2637 15.1387C19.6359 15.0909 19.0191 14.9469 18.435 14.7119C17.6217 14.3924 16.7616 14.2082 15.8888 14.1665C14.0737 14.1665 10.5416 16.7399 10.5416 21.4581C10.5416 25.9419 13.8121 31.6663 16.3749 31.6663C17.3528 31.6751 18.3189 31.4526 19.1944 31.0169C19.524 30.8351 19.8885 30.7251 20.2638 30.6941C20.639 30.7251 21.0035 30.8351 21.3332 31.0169C22.2087 31.4526 23.1748 31.6751 24.1526 31.6663C26.1846 31.6663 28.478 28.178 29.4385 24.9454C29.4788 24.8097 29.4578 24.663 29.3811 24.5439Z" fill="#292929"/>
<path d="M19.7776 14.1667C22.7294 14.1635 25.1215 11.7714 25.1248 8.81958C25.1248 8.55116 24.9071 8.3335 24.6387 8.3335C21.6868 8.33675 19.2947 10.7288 19.2915 13.6807C19.2914 13.9491 19.5091 14.1667 19.7776 14.1667Z" fill="#292929"/>
</svg>

<svg width="135" height="40" fill="none" xmlns="http://www.w3.org/2000/svg"><path d="M130 0H5a5 5 0 00-5 5v30a5 5 0 005 5h125a5 5 0 005-5V5a5 5 0 00-5-5z" fill="#fff"/><path d="M48.024 27.83h-4.321l-1.01 3.004H40.57l4.166-11.744h2.36l4.175 11.744h-2.254l-.993-3.003zm-3.833-1.66h3.345l-1.595-4.842h-.139l-1.61 4.842zm13.904-4.386c1.128 0 2.02.41 2.677 1.229.662.82.993 1.942.993 3.369 0 1.421-.325 2.542-.977 3.361-.656.825-1.546 1.237-2.669 1.237-1.33 0-2.235-.5-2.718-1.497h-.138v4.199h-2.018V21.93h1.945v1.474h.138a2.841 2.841 0 011.115-1.189 3.223 3.223 0 011.652-.431zm-.635 7.479c.7 0 1.248-.255 1.644-.765.39-.51.586-1.215.586-2.116 0-.9-.198-1.606-.594-2.116-.39-.51-.933-.765-1.628-.765-.689 0-1.234.258-1.636.773-.401.516-.605 1.218-.61 2.108.005.89.209 1.592.61 2.108.396.515.939.773 1.628.773zm11.348-7.479c1.129 0 2.021.41 2.678 1.229.662.82.992 1.942.992 3.369 0 1.421-.325 2.542-.976 3.361-.656.825-1.546 1.237-2.67 1.237-1.328 0-2.234-.5-2.717-1.497h-.139v4.199h-2.018V21.93h1.945v1.474h.138a2.841 2.841 0 011.115-1.189 3.223 3.223 0 011.652-.431zm-.635 7.479c.7 0 1.248-.255 1.644-.765.391-.51.586-1.215.586-2.116 0-.9-.198-1.606-.594-2.116-.39-.51-.933-.765-1.627-.765-.69 0-1.235.258-1.636.773-.402.516-.605 1.218-.61 2.108.005.89.208 1.592.61 2.108.396.515.938.773 1.627.773zm12.834-1.62c.065.527.339.944.822 1.254.483.314 1.096.472 1.84.472.694 0 1.263-.16 1.708-.48.45-.315.675-.72.675-1.213 0-.423-.17-.768-.512-1.034-.337-.265-.882-.485-1.636-.659l-1.522-.35c-2.089-.472-3.133-1.568-3.133-3.287 0-1.07.399-1.926 1.196-2.572.803-.651 1.861-.977 3.174-.977 1.232 0 2.252.32 3.06.96.808.64 1.237 1.465 1.286 2.475h-2.01a1.746 1.746 0 00-.74-1.23c-.424-.303-.958-.455-1.604-.455-.678 0-1.22.15-1.627.448-.413.303-.619.705-.619 1.204 0 .396.16.716.48.96.32.25.844.459 1.57.627l1.352.31c1.188.265 2.05.661 2.587 1.187.532.527.798 1.237.798 2.133 0 1.144-.412 2.048-1.237 2.71-.83.667-1.956 1-3.378 1-1.345 0-2.433-.314-3.263-.944-.824-.629-1.264-1.475-1.318-2.539h2.05zm12.113-7.837v2.181h1.953V23.6H93.12v4.37c0 .846.407 1.27 1.22 1.27.185 0 .407-.014.668-.041v1.578a5.307 5.307 0 01-1.041.098c-1.02 0-1.753-.187-2.198-.561-.439-.375-.659-.993-.659-1.856V23.6h-1.448v-1.611h1.448v-2.181h2.01zm7.849 9.514c.705 0 1.248-.258 1.628-.773.385-.51.577-1.232.577-2.165 0-.928-.192-1.65-.577-2.165-.385-.515-.928-.773-1.628-.773-.705 0-1.25.258-1.636.773-.385.516-.577 1.237-.577 2.165 0 .933.192 1.655.577 2.165.385.515.931.773 1.636.773zm0 1.692c-1.335 0-2.381-.41-3.141-1.228-.76-.825-1.14-1.959-1.14-3.402 0-1.432.383-2.564 1.148-3.394.765-.824 1.809-1.236 3.133-1.236 1.329 0 2.374.412 3.134 1.236.765.825 1.147 1.956 1.147 3.394 0 1.443-.38 2.577-1.14 3.402-.765.819-1.812 1.229-3.141 1.229zm6.482-9.082h1.945v1.384h.138c.125-.445.402-.811.83-1.099a2.69 2.69 0 011.506-.431c.347 0 .623.03.83.09v1.871c-.207-.076-.548-.114-1.026-.114-.651 0-1.18.188-1.586.562-.413.38-.619.879-.619 1.497v5.143h-2.018v-8.902zm10.575 1.425c-.602 0-1.098.198-1.489.594-.391.396-.608.92-.651 1.57h4.191c-.022-.661-.217-1.188-.586-1.578-.369-.391-.858-.586-1.465-.586zm3.98 5.029a3.071 3.071 0 01-1.335 1.92c-.705.473-1.578.709-2.62.709-1.308 0-2.336-.41-3.085-1.23-.743-.813-1.115-1.936-1.115-3.368 0-1.433.375-2.57 1.123-3.41.749-.836 1.769-1.253 3.06-1.253 1.269 0 2.265.398 2.987 1.196.716.792 1.074 1.89 1.074 3.296v.65h-6.217v.107c.027.743.239 1.329.635 1.757.401.434.933.651 1.595.651 1.02 0 1.681-.341 1.985-1.025h1.913zM42.852 8.295c.871 0 1.55.255 2.035.765.485.513.728 1.23.728 2.153 0 .938-.241 1.665-.724 2.18-.483.516-1.162.774-2.039.774h-2.12V8.295h2.12zm-1.208 5.042h1.107c.615 0 1.092-.183 1.428-.55.339-.369.508-.89.508-1.562 0-.662-.17-1.177-.512-1.546-.34-.37-.814-.554-1.424-.554h-1.107v4.212zm6.97.138c.377 0 .67-.134.879-.403.206-.266.31-.64.31-1.123 0-.48-.104-.854-.31-1.123-.209-.266-.502-.399-.879-.399-.38 0-.673.133-.879.4-.206.265-.31.64-.31 1.122 0 .486.104.861.31 1.127.206.266.5.4.88.4zm0 .777c-.65 0-1.162-.205-1.534-.614-.372-.41-.557-.973-.557-1.689 0-.713.187-1.275.561-1.684.372-.41.882-.615 1.53-.615.646 0 1.154.205 1.526.615.374.41.562.97.562 1.684 0 .716-.186 1.28-.558 1.689-.372.41-.882.614-1.53.614zm7.524-.085h-.908l-.915-3.264h-.07l-.91 3.264h-.9l-1.22-4.431h.886l.794 3.381h.065l.911-3.381h.838l.912 3.381h.07l.788-3.381h.875l-1.216 4.43zm2.12-4.431h.842v.704h.065c.109-.247.285-.44.529-.578.247-.141.537-.212.87-.212.495 0 .876.143 1.144.428.269.287.403.694.403 1.22v2.869h-.875v-2.65c0-.71-.323-1.065-.968-1.065-.353 0-.63.1-.83.3-.204.202-.306.476-.306.823v2.592h-.874V9.736zm5.127-1.73h.874v6.16h-.874v-6.16zm4.06 5.47c.378 0 .67-.135.88-.404.206-.266.309-.64.309-1.123 0-.48-.103-.854-.31-1.123-.209-.266-.501-.399-.879-.399-.38 0-.672.133-.878.4-.207.265-.31.64-.31 1.122 0 .486.103.861.31 1.127.206.266.499.4.879.4zm0 .776c-.65 0-1.162-.205-1.533-.614-.372-.41-.558-.973-.558-1.689 0-.713.187-1.275.561-1.684.372-.41.882-.615 1.53-.615.646 0 1.155.205 1.526.615.375.41.562.97.562 1.684 0 .716-.186 1.28-.558 1.689-.371.41-.881.614-1.53.614zm4.59-.748c.329 0 .603-.093.822-.277a.871.871 0 00.326-.692v-.37l-1.083.07c-.59.04-.887.253-.887.638 0 .195.078.35.232.464.15.111.346.167.59.167zm-.224.736c-.434 0-.786-.12-1.057-.358-.28-.247-.42-.57-.42-.968 0-.396.143-.708.428-.936.285-.225.691-.354 1.22-.387l1.2-.069v-.383c0-.488-.302-.732-.907-.732-.512 0-.82.164-.923.492h-.847c.044-.38.23-.683.562-.911.328-.225.745-.338 1.25-.338.553 0 .981.132 1.285.395.301.26.452.625.452 1.095v3.027h-.843v-.623h-.069c-.277.464-.72.696-1.33.696zm5.107 0c-.564 0-1.012-.206-1.343-.618-.33-.413-.496-.97-.496-1.673 0-.7.167-1.256.5-1.668.331-.412.778-.619 1.34-.619.303 0 .576.068.817.204.241.138.422.33.541.574h.065V8.006h.875v6.16h-.838v-.699h-.07c-.281.515-.745.773-1.39.773zm.248-3.792c-.369 0-.657.134-.866.403-.212.265-.318.632-.318 1.098 0 .47.105.838.314 1.107.211.266.501.399.87.399.37 0 .66-.135.871-.403.214-.269.322-.635.322-1.099 0-.46-.108-.827-.322-1.098-.214-.272-.504-.407-.87-.407zm7.516 3.027c.377 0 .67-.134.879-.403.206-.266.309-.64.309-1.123 0-.48-.103-.854-.31-1.123-.208-.266-.5-.399-.878-.399-.38 0-.673.133-.88.4-.205.265-.309.64-.309 1.122 0 .486.104.861.31 1.127.206.266.499.4.879.4zm0 .777c-.651 0-1.163-.205-1.534-.614-.372-.41-.558-.973-.558-1.689 0-.713.188-1.275.562-1.684.371-.41.881-.615 1.53-.615.645 0 1.154.205 1.525.615.375.41.562.97.562 1.684 0 .716-.186 1.28-.557 1.689-.372.41-.882.614-1.53.614zm3.141-4.516h.842v.704h.066a1.21 1.21 0 01.528-.578c.248-.141.538-.212.871-.212.494 0 .875.143 1.143.428.27.287.404.694.404 1.22v2.869h-.875v-2.65c0-.71-.323-1.065-.969-1.065-.352 0-.629.1-.83.3-.203.202-.305.476-.305.823v2.592h-.875V9.736zm8.549-1.075v1.095h.993v.736h-.993v2.28c0 .23.05.4.15.508.101.106.26.159.476.159.082 0 .19-.007.326-.02v.727c-.168.03-.324.045-.467.045-.486 0-.835-.092-1.046-.276-.21-.185-.314-.491-.314-.92v-2.502h-.728v-.737h.728V8.661h.875zm2.03-.655h.867v2.442h.07a1.2 1.2 0 01.529-.582 1.7 1.7 0 01.866-.212c.499 0 .884.144 1.156.432.273.287.411.694.411 1.22v2.86h-.875v-2.644c0-.71-.33-1.066-.989-1.066-.355 0-.638.103-.846.31-.21.203-.313.474-.313.813v2.588h-.876v-6.16zm6.955 2.389a1.08 1.08 0 00-.798.313c-.209.21-.326.487-.35.834h2.238c-.011-.35-.114-.628-.31-.834-.197-.209-.458-.313-.78-.313zm1.928 2.576c-.1.398-.318.712-.655.94-.339.227-.761.341-1.265.341-.635 0-1.134-.205-1.497-.614-.367-.407-.55-.964-.55-1.672s.185-1.271.554-1.69c.368-.417.865-.626 1.489-.626.616 0 1.1.198 1.452.594.35.396.525.943.525 1.64v.305h-3.129v.05c.014.39.126.699.338.927.211.228.492.342.842.342.534 0 .886-.18 1.054-.537h.842zM29.381 24.544a.487.487 0 00-.343-.218 3.38 3.38 0 01-.569-6.579.486.486 0 00.262-.724 5.673 5.673 0 00-4.092-2.857 8.009 8.009 0 00-2.546.546 6.15 6.15 0 01-1.83.427 6.15 6.15 0 01-1.828-.427 8.009 8.009 0 00-2.546-.546c-1.815 0-5.347 2.574-5.347 7.292 0 4.484 3.27 10.208 5.833 10.208a6.203 6.203 0 002.82-.65 2.67 2.67 0 011.069-.322c.375.031.74.141 1.07.323a6.203 6.203 0 002.819.65c2.032 0 4.325-3.489 5.286-6.722a.486.486 0 00-.058-.401z" fill="#292929"/><path d="M19.778 14.167a5.353 5.353 0 005.347-5.347.486.486 0 00-.486-.486 5.353 5.353 0 00-5.348 5.347c0 .268.218.486.487.486z" fill="#292929"/></svg>
